assets/icons/home.svg

<svg fill="none" height="24" viewBox="0 0 24 24" width="24" xmlns="http://www.w3.org/2000/svg"><g style="opacity:.6;stroke:#64748b;stroke-width:2;stroke-miterlimit:10;stroke-linecap:round;stroke-linejoin:round"><path d="m3 9.75 9-6.75 9 6.75"/><path d="m21 9.75v11.25h-18v-11.25"/><path d="m14.25 14.25h-4.5v6.75h4.5z"/></g></svg>

<svg width="24" height="24" viewBox="0 0 24 24" fill="none" xmlns="http://www.w3.org/2000/svg">
<g opacity="0.6">
<path d="M3 9.75L12 3L21 9.75" stroke="#64748B" stroke-width="2" stroke-miterlimit="10" stroke-linecap="round" stroke-linejoin="round"/>
<path d="M21 9.75V21H3V9.75" stroke="#64748B" stroke-width="2" stroke-miterlimit="10" stroke-linecap="round" stroke-linejoin="round"/>
<path d="M14.25 14.25H9.75V21H14.25V14.25Z" stroke="#64748B" stroke-width="2" stroke-miterlimit="10" stroke-linecap="round" stroke-linejoin="round"/>
</g>
</svg>
